dist/assets/images/phone.svg

<svg width="21" height="20" viewBox="0 0 21 20" fill="none" xmlns="http://www.w3.org/2000/svg">
<path d="M19.9765 14.678L17.1796 11.8869C16.1807 10.8901 14.4825 11.2889 14.083 12.5847C13.7833 13.4818 12.7844 13.9802 11.8854 13.7808C9.88759 13.2824 7.19055 10.6907 6.69109 8.59745C6.39142 7.70029 6.99076 6.70348 7.88978 6.40448C9.18835 6.00575 9.58792 4.31119 8.58901 3.31438L5.79208 0.523323C4.99296 -0.174441 3.79427 -0.174441 3.09504 0.523323L1.19712 2.41725C-0.700798 4.41087 1.3969 9.69394 6.09175 14.3789C10.7866 19.0639 16.0808 21.2569 18.0786 19.2633L19.9765 17.3693C20.6758 16.5719 20.6758 15.3757 19.9765 14.678Z" fill="#FDFDFD"/>
</svg>

<svg width="21" height="20" fill="none" xmlns="http://www.w3.org/2000/svg"><path d="M19.977 14.678l-2.797-2.791c-1-.997-2.697-.598-3.097.698-.3.897-1.299 1.395-2.198 1.196-1.997-.499-4.694-3.09-5.194-5.184-.3-.897.3-1.894 1.199-2.193 1.298-.398 1.698-2.093.699-3.09L5.792.524c-.799-.698-1.998-.698-2.697 0L1.197 2.416c-1.898 1.994.2 7.277 4.895 11.962 4.695 4.685 9.989 6.878 11.987 4.884l1.898-1.894c.699-.797.699-1.993 0-2.691z" fill="#FDFDFD"/></svg>
